X: 30311
M: 3/8
L: 1/16
K: G
V: 1 staves=2
d2 |\
d2g2g2 | e2a2a2 | gfedef | g2b2d'2 |\
d2g2g2 | e2a2a2 | gfedef | g4 :|
|: g2 |\
c'2g2g2 | g2e2e2 | d2de=fd | c2G2G2 |\
c'2g2g2 | g2e2e2 | d2de=fd | c4 :|
|: G2 |\
c2c2B2 | c2c2B2 | c2c2d2 | e4c2 |\
g2g2e2 | g2g2e2 | d2dede |1 B4 :|2 c4 |]
|: ef |\
gegege | gegege | afafaf | g4c'2 |\
gegege | gegege | afafaf | g4 :|
V: 2
|: z2 |\
EGEGEG | EGEGEG | =FGFGFG | EGEGEG |\
EGEGEG | EGEGEG | =FGFGFG | E4 :|
|: G2 |\
E2E2G2 | E2E2G2 | E2E2G2 | c4c2 |\
e2e2c2 | e2e2c2 | B2BcBc |1 B4 :|2 E4 |]
|: z2 |\
e2e2e2 | e2e2e2 | f2f2f2 | e4e2 |\
e2e2e2 | e2e2e2 | f2f2f2 | e4 :|


